svgs/thin/usb-drive.svg

<svg xmlns="http://www.w3.org/2000/svg" viewBox="0 0 640 512"><!--! Font Awesome Pro 6.3.0 by @fontawesome - https://fontawesome.com License - https://fontawesome.com/license (Commercial License) Copyright 2023 Fonticons, Inc. --><path d="M416 96L64 96c-35.35 0-64 28.65-64 64v192c0 35.35 28.65 64 64 64L416 416c17.67 0 32-14.33 32-32V128C448 110.3 433.7 96 416 96zM432 384c0 8.822-7.178 16-16 16H64c-26.47 0-48-21.53-48-48V160c0-26.47 21.53-48 48-48h352c8.822 0 16 7.178 16 16V384zM600 128h-112C483.6 128 480 131.6 480 136s3.578 8 8 8h112c13.23 0 24 10.78 24 24v176c0 13.22-10.77 24-24 24h-112c-4.422 0-8 3.594-8 8S483.6 384 488 384h112c22.06 0 40-17.94 40-40v-176C640 145.9 622.1 128 600 128zM544 240h32c8.836 0 16-7.164 16-16V192c0-8.838-7.164-16-16-16h-32c-8.836 0-16 7.162-16 16v32C528 232.8 535.2 240 544 240zM544 192h32v32h-32V192zM528 320c0 8.836 7.164 16 16 16h32c8.836 0 16-7.164 16-16V288c0-8.838-7.164-16-16-16h-32c-8.836 0-16 7.162-16 16V320zM544 288h32v32h-32V288z"/></svg>

<svg xmlns="http://www.w3.org/2000/svg" viewBox="0 0 640 512"><!-- Font Awesome Pro 6.0.0-alpha2 by @fontawesome - https://fontawesome.com License - https://fontawesome.com/license (Commercial License) --><path d="M416 96H64C28.654 96 0 124.652 0 160V352C0 387.346 28.654 416 64 416H416C433.674 416 448 401.672 448 384V128C448 110.326 433.674 96 416 96ZM432 384C432 392.822 424.822 400 416 400H64C37.533 400 16 378.467 16 352V160C16 133.533 37.533 112 64 112H416C424.822 112 432 119.178 432 128V384ZM600 128H488C483.578 128 480 131.594 480 136S483.578 144 488 144H600C613.234 144 624 154.781 624 168V344C624 357.219 613.234 368 600 368H488C483.578 368 480 371.594 480 376S483.578 384 488 384H600C622.062 384 640 366.062 640 344V168C640 145.938 622.062 128 600 128ZM544 240H576C584.836 240 592 232.836 592 224V192C592 183.162 584.836 176 576 176H544C535.164 176 528 183.162 528 192V224C528 232.836 535.164 240 544 240ZM544 192H576V224H544V192ZM528 320C528 328.836 535.164 336 544 336H576C584.836 336 592 328.836 592 320V288C592 279.162 584.836 272 576 272H544C535.164 272 528 279.162 528 288V320ZM544 288H576V320H544V288Z"/></svg>
